!!!OTL: Tationenlied (Band 1), S. 31
!!!id: P0783
**kern
*clefG2
*k[f#c#]
*D:
{4a
=1
4.f#
8d
4d
4e
=2
2.f#}
=3
{4d
=4
4e
4d
4c#
4d
=5
2e
4d}
=6
{4a
=7
4a
4a
4a
4a
=8
2.b}
=9
{8cc#
8cc#
=10
4dd
4a
4a
4g
=11
2f#
4e}
=12
{4d
=13
4.e
8d
4e
4f#
=14
2.g}
=15
{4e
=16
4f#
4e
4f#
4g
=17
2.a}
=18
{4a
=19
4.b
8a
4b
4cc#
=20
4dd}
=21
{8a
8a
4b
4g
=22
2f#
2e
=23
2.d}
==
*-
!!!minrhy: 8
!!!meters: 4/4 ]  ZZ[8
!!!cut: Tationenlied (Band 1), S. 31
!!!reg: Lothringen
!!!trd: PINCK, Louis: Verklingende Weisen, Bd 1, Metz 1928
!!!rhy1: X_  X_.XX_X_  X__.
!!!rhy2: X_  X_X_X_X_  X__X_
!!!key: P0783  08  D 4/4 ]  ZZ[8
!!!mod: HEPTATONIK IONISCH]  AMBITUS[9b
!!!kad: 316245+11
!!!akz: 3133_2-721_5566_+1532_2244_3355_66+1_63211_
!!!fot: 'a__as"b__c__as"as"as_d__
!!!for: 'a__b__bw_bv_a__bw_av_c__
!!!fok: 'Vd_-__/__\__/__/__/__\__
!! PHRAS[AUFTAKTIG]
!!!fkt: geistliche, religiöse Lieder
!! LOTH VKL
!! PR[24] 2K[0] 2G[15] 3K[3] 3G[3] 4A[12] 4Ü[0] 5A[0] 6K[0] 6G[0]
!! 7K[0] 7G[0] 8A[0] MEHR[0] SI[32] ABS[34] SR[15] SP[18]
!! ST[8] 2k[3] 2g[32] 3k[9] 3g[0] 4d[0] 4ü[0] 5d[0] 6k[0] 6g[0]
!! 7k[0] 7g[0] 8d[0] mehr[0] si[44] dm[-12] sr[35] sp[9]
!! 1F[46] 2F[46] 3F[3] 4F[0] LF[0] 2P[3] 3P[3] 4P[0] TRI[0] DF[5] AB[37]
!! TF[0] U3K[0] U3[0] U4[0] U4Ü[0] U5[11] U6K[0] U6[3] U7K[0] U7[3]
!! N1[29] N2K[0] N2[26] N3K[0] N3[11] N4[3] N4Ü[0] N5[11] N6K[0] N6[3]
!!!n7k: 0] N7[0] O1[0] O2K[0] O2[0] O3K[0] O3[0] HÖ[0
